!!!SOCIAL_FUNCTION: songs connected with ceremonies
!!!SOCIAL_FUNCTION2: Bear dance
!!!PDT:	1929
!!!LING_GROUP: Caddoan
!!!LANG: Non-Tone
!!!REG: Oklahoma
!!!COM: Anon.
!!!OTL: Bear Dance Song (b)
!!!ODT: <1920//
!!!MPN: Dog Chief [Simond Adams]
!!!MLC: Pawnee, Oklahoma, United States of America
!! Song was recorded either 1919 or 1920.
!!!AGN: monody
!!!AMT: irregular
!!!RWG: Transcribed pitches, durations, and meters are only approximate.
!! Drum not recorded
**kern
*ICvox
*Imale
*clefF4
*k[f#c#g#d#]
*[A,B,B]
*>A
*M2/4
*MM92
8d#
16d#
16d#
=1
8d#^
8d#
8e
16d#
16r
*M3/4
=2
8d#
8c#
8c#
8c#
8d#
16d#
16r
*M2/4
=3
8d#^
8c#
8c#
8c#
=4
8d#^
8d#
8e
16d#
16r
=5
8d#
8c#
8c#
16c#
16r
=6
*>B
8d#
8d#
8d#
16c#
16r
=7
8d#^
8G#
8G#
16G#
16r
=8
8A^
8A
8A
16G#
16r
*M3/4
=9
8G#
8D#
8D#
8D#
8E
16D#
16r
=10
8C#
8C#
8C#
16C#
16r
8D#
8D#
*M2/4
=11
8C#
8C#
8C#
8r
*M3/4
=12
8d#
8d#
8d#
8d#
8d#
8d#
*M2/4
=13
8d#^
8d#
8e
16d#
16r
=14
8d#
8c#
8c#
16c#
16r
=15
8d#^
8d#
8d#
16c#
16r
=16
8d#
8G#
8G#
16G#
16r
=17
8A^
8A
8A
16G#
16r
*M3/4
=18
8G#
8D#
8D#
8D#
8E
16D#
16r
=19
8C#
8C#
8C#
16C#
16r
8D#
8D#
*M2/4
=20
8C#
8C#
8C#
8r
==:|!
*-
!!!HAO:    The words of the following song (not translated) state
!!!HAO: that Dog Chief took horns like those of a buffalo and put
!!!HAO: them on the horse he had captured.
!!!HTX: [no free translation]
!!!CNT: Pawnee
!!!TXO: Pawnee
!!!OCY: United States
!!!OCL: Frances Densmore
!!!YOR: Frances Densmore, "Pawnee Music"
!!!YOR: Bulletin 93, page 45, No. 18
!!!PPR: Smithsonian Institution, Bureau of American Ethnology
!!!PPR: Government Printing Office
!!!PDT: 1926
!!!PPP: Washington, DC, United States of America
!!!YEC: Electronic Copyright 2000 David Huron
!!!YER: September 2000
!!!YEN: United States of America
!!!ENC: David Huron
!!!RDT: September 3, 2000
!!!EEV: Release 1.0
!!!AIN: vox
